packages/crayons-core/src/components/icon/icon-assets/icons/formatting.svg

<?xml version="1.0" encoding="UTF-8"?>
<svg width="16px" height="13px" viewBox="0 0 16 13" version="1.1" xmlns="http://www.w3.org/2000/svg" xmlns:xlink="http://www.w3.org/1999/xlink">
    <!-- Generator: Sketch 52.6 (67491) - http://www.bohemiancoding.com/sketch -->
    <title>icon/formatting</title>
    <desc>Created with Sketch.</desc>
    <g id="Icons-✅" stroke="none" stroke-width="1" fill="none" fill-rule="evenodd">
        <g id="Icons" transform="translate(-326.000000, -1994.000000)" fill="currentColor">
            <g id="icon/formatting" transform="translate(326.000000, 1994.000000)">
                <g id="formatting">
                    <path d="M12,3.65 C12.0139041,3.84415178 11.9463394,4.03532587 11.8135268,4.17762506 C11.6807143,4.31992425 11.4946484,4.40049723 11.3,4.4 L8.17,4.4 L8.17,11.4 C8.17,11.7865993 7.85659932,12.1 7.47,12.1 L4.53,12.1 C4.14340068,12.1 3.83,11.7865993 3.83,11.4 L3.83,4.4 L0.7,4.4 C0.313400675,4.4 4.73447626e-17,4.08659932 0,3.7 L0,0.7 C4.73447626e-17,0.313400675 0.313400675,-4.4408921e-14 0.7,-4.4408921e-14 L11.3,-4.4408921e-14 C11.6865993,-4.4408921e-14 12,0.313400675 12,0.7 L12,3.65 Z M10.6,3 L10.6,1.4 L1.4,1.4 L1.4,2.95 L4.53,2.95 C4.91435036,2.95537631 5.22462369,3.26564964 5.23,3.65 L5.23,10.7 L6.77,10.7 L6.77,3.7 C6.77537631,3.31564964 7.08564964,3.00537631 7.47,3 L10.6,3 Z M15.3,5.7 C15.6865993,5.7 16,6.01340068 16,6.4 C16,6.78659932 15.6865993,7.1 15.3,7.1 L10.47,7.1 C10.0834007,7.1 9.77,6.78659932 9.77,6.4 C9.77,6.01340068 10.0834007,5.7 10.47,5.7 L15.3,5.7 Z M13.3,9 C13.6865993,9.00000002 14,9.31340069 14,9.7 C14,10.0865993 13.6865993,10.4 13.3,10.4 L10.47,10.4 C10.0834007,10.4 9.77,10.0865993 9.77,9.7 C9.77,9.31340068 10.0834007,9 10.47,9 L13.3,9 Z" id="Combined-Shape"></path>
                </g>
            </g>
        </g>
    </g>
</svg>

<svg viewBox="0 0 16 13"><path d="M12 3.65a.7.7 0 0 1-.7.75H8.17v7a.7.7 0 0 1-.7.7H4.53a.7.7 0 0 1-.7-.7v-7H.7a.7.7 0 0 1-.7-.7v-3A.7.7 0 0 1 .7 0h10.6a.7.7 0 0 1 .7.7v2.95zM10.6 3V1.4H1.4v1.55h3.13a.71.71 0 0 1 .7.7v7.05h1.54v-7a.71.71 0 0 1 .7-.7h3.13zm4.7 2.7a.7.7 0 0 1 0 1.4h-4.83a.7.7 0 0 1 0-1.4h4.83zm-2 3.3a.7.7 0 0 1 0 1.4h-2.83a.7.7 0 0 1 0-1.4h2.83z" fill="currentColor" fill-rule="evenodd"/></svg>
